Papirus-nordic/22x22/places/folder-nordic-google-drive.svg

<svg xmlns="http://www.w3.org/2000/svg" width="22" height="22" version="1">
 <rect width="20" height="12" x="1" y="8.5" rx="1" ry="1" opacity=".2"/>
 <path d="M1 16c0 .554.446 1 1 1h18c.554 0 1-.446 1-1V5c0-.554-.446-1-1-1H10V3c0-.554-.446-1-1-1H2c-.554 0-1 .446-1 1" fill="#6c9b9a"/>
 <rect width="20" height="12" x="1" y="7.5" rx="1" ry="1" opacity=".2"/>
 <rect width="16" height="8" x="3" y="6" rx="1" ry="1" fill="#e4e4e4"/>
 <rect width="20" height="12" x="1" y="8" rx="1" ry="1" fill="#82abaa"/>
 <path d="M2 2c-.554 0-1 .446-1 1v.5c0-.554.446-1 1-1h7c.554 0 1 .446 1 1V3c0-.554-.446-1-1-1zm8 2v.5h10c.554 0 1 .446 1 1V5c0-.554-.446-1-1-1z" opacity=".1" fill="#fff"/>
 <g fill="#4e6766">
 <path d="M15 14.48L12.333 10H9.75l2.5 4.48zM10.25 14.97L9 17h4.666L15 14.97zM9.5 10.5L7 15l1.333 2 2.517-4z"/>
 </g>
</svg>

<svg xmlns="http://www.w3.org/2000/svg" width="22" height="22" version="1">
 <rect style="opacity:0.2" width="20" height="12" x="1" y="8.5" rx="1" ry="1"/>
 <path style="fill:#6c9b9a" d="M 1,16 C 1,16.554 1.446,17 2,17 H 20 C 20.554,17 21,16.554 21,16 V 5 C 21,4.446 20.554,4 20,4 H 11 C 9.5,4 9,2 7.5,2 H 2 C 1.446,2 1,2.446 1,3"/>
 <rect style="opacity:0.2" width="20" height="12" x="1" y="7.5" rx="1" ry="1"/>
 <rect style="fill:#eceff4" width="16" height="8" x="3" y="6" rx="1" ry="1"/>
 <rect style="fill:#82abaa" width="20" height="12" x="1" y="8" rx="1" ry="1"/>
 <path style="opacity:0.1;fill:#ffffff" d="M 2,2 C 1.446,2 1,2.446 1,3 V 3.5 C 1,2.946 1.446,2.5 2,2.5 H 7.5 C 9,2.5 9.5,4.5 11,4.5 H 20 C 20.554,4.5 21,4.946 21,5.5 V 5 C 21,4.446 20.554,4 20,4 H 11 C 9.5,4 9,2 7.5,2 Z"/>
 <g>
  <path style="fill:#4e6766" d="M 15,14.48 12.333,10 H 9.7499 L 12.25,14.48 Z"/>
  <path style="fill:#4e6766" d="M 10.25,14.97 8.9999,17 H 13.666 L 15,14.97 Z"/>
  <path style="fill:#4e6766" d="M 9.4999,10.5 7,15 8.3333,17 10.85,13 Z"/>
 </g>
</svg>
